X: 8745
T: Csak Egy Kislany Van A Vilagon
R: polka
M: 2/4
K: Bminor
|:A2A2|d2A2|GFED|E4|A2f2|e2d2|cdcB|A4|
A2e2|f2d2|dGAB|AA^Ac|d2B2|A2G2|FGFE|D4:|

